Sweet-Rainbow/icons/conky.svg

<?xml version="1.0" encoding="UTF-8" standalone="no"?>
<!-- Generator: Gravit.io -->

<svg
   xmlns:dc="http://purl.org/dc/elements/1.1/"
   xmlns:cc="http://creativecommons.org/ns#"
   xmlns:rdf="http://www.w3.org/1999/02/22-rdf-syntax-ns#"
   xmlns:svg="http://www.w3.org/2000/svg"
   xmlns="http://www.w3.org/2000/svg"
   xmlns:sodipodi="http://sodipodi.sourceforge.net/DTD/sodipodi-0.dtd"
   xmlns:inkscape="http://www.inkscape.org/namespaces/inkscape"
   style="isolation:isolate"
   viewBox="0 0 36 36"
   width="48"
   height="48"
   version="1.1"
   id="svg9"
   sodipodi:docname="conky.svg"
   inkscape:version="0.92.4 (5da689c313, 2019-01-14)">
  <metadata
     id="metadata15">
    <rdf:RDF>
      <cc:Work
         rdf:about="">
        <dc:format>image/svg+xml</dc:format>
        <dc:type
           rdf:resource="http://purl.org/dc/dcmitype/StillImage" />
        <dc:title></dc:title>
      </cc:Work>
    </rdf:RDF>
  </metadata>
  <defs
     id="defs13" />
  <sodipodi:namedview
     pagecolor="#ffffff"
     bordercolor="#666666"
     borderopacity="1"
     objecttolerance="10"
     gridtolerance="10"
     guidetolerance="10"
     inkscape:pageopacity="0"
     inkscape:pageshadow="2"
     inkscape:window-width="640"
     inkscape:window-height="480"
     id="namedview11"
     showgrid="false"
     inkscape:zoom="29.365243"
     inkscape:cx="25.325443"
     inkscape:cy="32"
     inkscape:current-layer="svg9"
     units="px" />
  <linearGradient
     id="_lgradient_9"
     x1="-3.8208334e-05"
     y1="0.50000006"
     x2="0.99996185"
     y2="0.50000006"
     gradientTransform="matrix(47,0,0,44.762,0.5,1.619)"
     gradientUnits="userSpaceOnUse">
    <stop
       offset="0%"
       stop-opacity="1"
       style="stop-color:rgb(211,0,220)"
       id="stop2" />
    <stop
       offset="100%"
       stop-opacity="1"
       style="stop-color:rgb(135,0,255)"
       id="stop4" />
  </linearGradient>
  <g
     id="g826"
     transform="matrix(0.76595745,0,0,0.76595745,-0.3829788,-0.38310083)">
    <path
       id="path7"
       d="m 20.643,36.297 v 1.766 c -2.294,0.544 -4.159,1.701 -5.852,3.338 -1.117,1.081 -1.182,3.082 0,4.144 0.654,0.582 1.489,0.871 2.306,0.833 0.692,-0.032 1.379,-0.302 1.928,-0.833 0.216,-0.211 0.438,-0.409 0.667,-0.595 0.098,-0.064 0.196,-0.135 0.294,-0.199 0.392,-0.255 0.795,-0.472 1.22,-0.671 0.575,-0.211 1.171,-0.369 1.772,-0.472 0.353,-0.032 0.669,-0.045 1.022,-0.039 0.353,-0.006 0.669,0.007 1.022,0.039 0.601,0.103 1.197,0.261 1.772,0.472 0.425,0.199 0.828,0.416 1.22,0.671 0.098,0.064 0.196,0.135 0.294,0.199 0.229,0.186 0.451,0.384 0.667,0.595 0.549,0.531 1.236,0.801 1.928,0.833 0.817,0.038 1.652,-0.251 2.306,-0.833 1.182,-1.062 1.117,-3.063 0,-4.144 -1.693,-1.637 -3.558,-2.794 -5.852,-3.338 v -1.766 h 7.305 c 0.404,0 0.815,0.013 1.225,0.013 h 0.291 c 0.259,0 0.512,-0.007 0.771,-0.02 2.325,-0.114 4.562,-0.952 6.362,-2.361 0.373,-0.286 0.727,-0.603 1.062,-0.946 0.669,-0.68 1.257,-1.454 1.724,-2.311 0.86,-1.556 1.327,-2.841 1.384,-4.619 0.006,-0.101 0.006,-0.203 0.006,-0.298 v 0 c 0.013,-1.435 -1.194,-2.813 -2.659,-2.921 -0.083,0 -0.171,-0.006 -0.253,0 h -0.032 v 0 c -0.031,0 -0.069,0.007 -0.101,0.007 -0.726,0.057 -1.39,0.368 -1.883,0.844 -0.372,0.362 -0.65,1.056 -0.783,1.583 -0.057,0.223 -0.089,0.457 -0.089,0.699 0,0.235 -0.012,0.463 -0.031,0.698 -0.082,0.451 -0.202,0.441 -0.36,0.873 -0.158,0.33 -0.335,0.653 -0.537,0.958 -0.045,0.07 -0.089,0.134 -0.133,0.197 -0.145,0.171 -0.291,0.337 -0.449,0.495 -0.158,0.153 -0.322,0.299 -0.486,0.445 -0.07,0.05 -0.133,0.095 -0.202,0.139 -0.31,0.204 -0.632,0.381 -0.961,0.54 -0.423,0.152 -0.859,0.273 -1.307,0.356 v 0 c -0.379,0.031 -0.759,0.044 -1.144,0.044 h -0.303 c -0.499,0 -0.992,-0.013 -1.479,-0.013 H 14.217 c -0.613,0 -1.232,0.026 -1.858,0.026 h -0.253 -0.038 c -0.442,0 -0.884,-0.013 -1.32,-0.051 v 0 C 10.299,30.591 9.863,30.471 9.434,30.318 9.105,30.16 8.783,29.982 8.473,29.779 8.41,29.734 8.347,29.69 8.284,29.645 8.12,29.499 7.949,29.353 7.791,29.195 7.633,29.036 7.488,28.871 7.343,28.706 7.298,28.642 7.254,28.579 7.21,28.509 7.008,28.204 6.837,27.887 6.679,27.563 6.521,27.125 6.401,26.68 6.313,26.223 V 26.217 C 6.262,25.709 6.243,25.195 6.237,24.674 V 24.668 C 6.224,23.595 6.281,22.297 6.281,21.244 v -7.333 -0.757 -0.032 c -0.006,-0.248 -0.006,-0.495 0,-0.743 V 12.341 C 6.287,12.125 6.294,11.903 6.313,11.687 6.401,11.236 6.521,10.798 6.679,10.367 6.837,10.036 7.014,9.725 7.21,9.421 7.254,9.357 7.298,9.294 7.343,9.23 7.494,9.065 7.639,8.894 7.797,8.735 7.955,8.57 8.12,8.424 8.29,8.278 8.353,8.233 8.417,8.189 8.48,8.144 8.783,7.941 9.099,7.763 9.427,7.605 9.857,7.446 10.299,7.325 10.748,7.243 11.152,7.211 11.563,7.198 11.974,7.198 h 0.221 0.006 c 0.493,0 0.992,0.013 1.478,0.013 h 20.092 c 0.613,0 1.232,-0.025 1.851,-0.025 h 0.291 c 0.442,0.006 0.884,0.019 1.326,0.057 0.449,0.082 0.898,0.203 1.327,0.362 0.322,0.158 0.645,0.336 0.948,0.539 0.07,0.045 0.133,0.089 0.196,0.134 0.164,0.146 0.335,0.292 0.493,0.451 0.158,0.152 0.303,0.317 0.448,0.488 0.045,0.07 0.089,0.134 0.133,0.197 0.202,0.305 0.373,0.622 0.531,0.952 0.164,0.432 0.278,0.877 0.366,1.327 0.019,0.21 0.025,-0.022 0.032,0.194 v 0.05 c 0.006,0.769 0.341,1.741 0.872,2.287 0.461,0.477 1.08,0.8 1.756,0.845 v 0 c 0.044,0.006 0.082,0.006 0.126,0.006 h 0.139 0.026 C 46.11,14.993 47.393,13.894 47.494,12.383 47.5,12.313 47.5,12.237 47.5,12.167 47.468,8.339 45.472,5.213 42.224,3.206 40.354,2.057 38.225,1.619 36.064,1.619 H 14.558 11.601 C 8.72,1.619 5.99,2.679 3.886,4.66 1.663,6.762 0.5,9.758 0.5,12.799 v 0.502 4.584 5.6 0.87 c 0.006,1.466 0.051,2.92 0.531,4.329 0.53,1.581 1.409,3.029 2.546,4.229 0.341,0.362 0.714,0.705 1.099,1.016 1.201,0.971 2.61,1.688 4.151,2.05 1.295,0.305 2.565,0.318 3.873,0.318 z M 13.716,16.634 h 4 v 10.929 h -4 V 16.634 Z m 16.568,4 h 4 v 6.929 h -4 z M 22,11.001 h 4 v 16.562 h -4 z"
       style="fill:url(#_lgradient_9);fill-rule:evenodd"
       inkscape:connector-curvature="0" />
  </g>
</svg>

<?xml version="1.0" encoding="UTF-8" standalone="no"?><!-- Generator: Gravit.io --><svg xmlns="http://www.w3.org/2000/svg" xmlns:xlink="http://www.w3.org/1999/xlink" style="isolation:isolate" viewBox="0 0 48 48" width="48pt" height="48pt"><linearGradient id="_lgradient_9" x1="-0.000038208333333289435" y1="0.5000000833333331" x2="0.9999618333333335" y2="0.5000000833333331" gradientTransform="matrix(47,0,0,44.762,0.5,1.619)" gradientUnits="userSpaceOnUse"><stop offset="0%" stop-opacity="1" style="stop-color:rgb(211,0,220)"/><stop offset="100%" stop-opacity="1" style="stop-color:rgb(135,0,255)"/></linearGradient><path d=" M 20.643 36.297 L 20.643 38.063 C 18.349 38.607 16.484 39.764 14.791 41.401 C 13.674 42.482 13.609 44.483 14.791 45.545 C 15.445 46.127 16.28 46.416 17.097 46.378 C 17.789 46.346 18.476 46.076 19.025 45.545 C 19.241 45.334 19.463 45.136 19.692 44.95 C 19.79 44.886 19.888 44.815 19.986 44.751 C 20.378 44.496 20.781 44.279 21.206 44.08 C 21.781 43.869 22.377 43.711 22.978 43.608 C 23.331 43.576 23.647 43.563 24 43.569 C 24.353 43.563 24.669 43.576 25.022 43.608 C 25.623 43.711 26.219 43.869 26.794 44.08 C 27.219 44.279 27.622 44.496 28.014 44.751 C 28.112 44.815 28.21 44.886 28.308 44.95 C 28.537 45.136 28.759 45.334 28.975 45.545 C 29.524 46.076 30.211 46.346 30.903 46.378 C 31.72 46.416 32.555 46.127 33.209 45.545 C 34.391 44.483 34.326 42.482 33.209 41.401 C 31.516 39.764 29.651 38.607 27.357 38.063 L 27.357 36.297 L 34.662 36.297 C 35.066 36.297 35.477 36.31 35.887 36.31 L 36.178 36.31 C 36.437 36.31 36.69 36.303 36.949 36.29 C 39.274 36.176 41.511 35.338 43.311 33.929 C 43.684 33.643 44.038 33.326 44.373 32.983 C 45.042 32.303 45.63 31.529 46.097 30.672 C 46.957 29.116 47.424 27.831 47.481 26.053 C 47.487 25.952 47.487 25.85 47.487 25.755 L 47.487 25.755 C 47.5 24.32 46.293 22.942 44.828 22.834 C 44.745 22.834 44.657 22.828 44.575 22.834 L 44.543 22.834 L 44.543 22.834 C 44.512 22.834 44.474 22.841 44.442 22.841 C 43.716 22.898 43.052 23.209 42.559 23.685 C 42.187 24.047 41.909 24.741 41.776 25.268 C 41.719 25.491 41.687 25.725 41.687 25.967 C 41.687 26.202 41.675 26.43 41.656 26.665 C 41.574 27.116 41.454 27.106 41.296 27.538 C 41.138 27.868 40.961 28.191 40.759 28.496 C 40.714 28.566 40.67 28.63 40.626 28.693 C 40.481 28.864 40.335 29.03 40.177 29.188 C 40.019 29.341 39.855 29.487 39.691 29.633 C 39.621 29.683 39.558 29.728 39.489 29.772 C 39.179 29.976 38.857 30.153 38.528 30.312 C 38.105 30.464 37.669 30.585 37.221 30.668 L 37.221 30.668 C 36.842 30.699 36.462 30.712 36.077 30.712 L 35.774 30.712 C 35.275 30.712 34.782 30.699 34.295 30.699 L 14.217 30.699 C 13.604 30.699 12.985 30.725 12.359 30.725 L 12.106 30.725 L 12.068 30.725 C 11.626 30.725 11.184 30.712 10.748 30.674 L 10.748 30.674 C 10.299 30.591 9.863 30.471 9.434 30.318 C 9.105 30.16 8.783 29.982 8.473 29.779 C 8.41 29.734 8.347 29.69 8.284 29.645 C 8.12 29.499 7.949 29.353 7.791 29.195 C 7.633 29.036 7.488 28.871 7.343 28.706 C 7.298 28.642 7.254 28.579 7.21 28.509 C 7.008 28.204 6.837 27.887 6.679 27.563 C 6.521 27.125 6.401 26.68 6.313 26.223 L 6.313 26.217 C 6.262 25.709 6.243 25.195 6.237 24.674 L 6.237 24.668 C 6.224 23.595 6.281 22.297 6.281 21.244 L 6.281 13.911 L 6.281 13.154 L 6.281 13.122 C 6.275 12.874 6.275 12.627 6.281 12.379 L 6.281 12.341 C 6.287 12.125 6.294 11.903 6.313 11.687 C 6.401 11.236 6.521 10.798 6.679 10.367 C 6.837 10.036 7.014 9.725 7.21 9.421 C 7.254 9.357 7.298 9.294 7.343 9.23 C 7.494 9.065 7.639 8.894 7.797 8.735 C 7.955 8.57 8.12 8.424 8.29 8.278 C 8.353 8.233 8.417 8.189 8.48 8.144 C 8.783 7.941 9.099 7.763 9.427 7.605 C 9.857 7.446 10.299 7.325 10.748 7.243 C 11.152 7.211 11.563 7.198 11.974 7.198 L 12.195 7.198 L 12.201 7.198 C 12.694 7.198 13.193 7.211 13.679 7.211 L 33.771 7.211 C 34.384 7.211 35.003 7.186 35.622 7.186 L 35.913 7.186 C 36.355 7.192 36.797 7.205 37.239 7.243 C 37.688 7.325 38.137 7.446 38.566 7.605 C 38.888 7.763 39.211 7.941 39.514 8.144 C 39.584 8.189 39.647 8.233 39.71 8.278 C 39.874 8.424 40.045 8.57 40.203 8.729 C 40.361 8.881 40.506 9.046 40.651 9.217 C 40.696 9.287 40.74 9.351 40.784 9.414 C 40.986 9.719 41.157 10.036 41.315 10.366 C 41.479 10.798 41.593 11.243 41.681 11.693 C 41.7 11.903 41.706 11.671 41.713 11.887 L 41.713 11.937 C 41.719 12.706 42.054 13.678 42.585 14.224 C 43.046 14.701 43.665 15.024 44.341 15.069 L 44.341 15.069 C 44.385 15.075 44.423 15.075 44.467 15.075 L 44.606 15.075 L 44.632 15.075 C 46.11 14.993 47.393 13.894 47.494 12.383 C 47.5 12.313 47.5 12.237 47.5 12.167 C 47.468 8.339 45.472 5.213 42.224 3.206 C 40.354 2.057 38.225 1.619 36.064 1.619 L 14.558 1.619 L 11.601 1.619 C 8.72 1.619 5.99 2.679 3.886 4.66 C 1.663 6.762 0.5 9.758 0.5 12.799 L 0.5 13.301 L 0.5 17.885 L 0.5 23.485 L 0.5 24.355 C 0.506 25.821 0.551 27.275 1.031 28.684 C 1.561 30.265 2.44 31.713 3.577 32.913 C 3.918 33.275 4.291 33.618 4.676 33.929 C 5.877 34.9 7.286 35.617 8.827 35.979 C 10.122 36.284 11.392 36.297 12.7 36.297 L 20.643 36.297 L 20.643 36.297 L 20.643 36.297 Z  M 13.716 16.634 L 17.716 16.634 L 17.716 27.563 L 13.716 27.563 L 13.716 16.634 L 13.716 16.634 L 13.716 16.634 Z  M 30.284 20.634 L 34.284 20.634 L 34.284 27.563 L 30.284 27.563 L 30.284 20.634 L 30.284 20.634 Z  M 22 11.001 L 26 11.001 L 26 27.563 L 22 27.563 L 22 11.001 Z " fill-rule="evenodd" fill="url(#_lgradient_9)"/></svg>
